X:4996
T:Fandango (L.leitariegos-Torner)
C:Trad.
Z:Mtodu de gaita
M:3/8
L:1/8
Q:1/4=72
K:C
|: GF/E/D/E/|DB,D|FED|G C2|GF/E/D/E/|DB,D|FED|C3 :|
|: GFE|G2 G|AFA|G3/2F/E|GFE|G2 G|ADF|E3/2D/C :|
|: cBc|A3/2G/F|GGG|E3/2D/C|cBc|A3/2G/F|GGG|E3/2D/C :|
|: GcB|c3/2B/A|Bcd|B3/2A/G|ABc|A3/2G/F|GGG|E3/2D/C :|
|: GF/E/D/E/|DB,D|FED|G C2|GF/E/D/E/|DB,D|FED|C3 :|
